public/svg/icon/hsr.svg

<svg xmlns="http://www.w3.org/2000/svg" xmlns:xlink="http://www.w3.org/1999/xlink" width="32" height="32" viewBox="0 0 32 32"><defs><linearGradient id="hsr-c" x1="50%" x2="50%" y1="0%" y2="100%"><stop offset="0%" stop-color="#FFF" stop-opacity=".5"/><stop offset="100%" stop-opacity=".5"/></linearGradient><circle id="hsr-b" cx="16" cy="15" r="15"/><filter id="hsr-a" width="111.7%" height="111.7%" x="-5.8%" y="-4.2%" filterUnits="objectBoundingBox"><feOffset dy=".5" in="SourceAlpha" result="shadowOffsetOuter1"/><feGaussianBlur in="shadowOffsetOuter1" result="shadowBlurOuter1" stdDeviation=".5"/><feComposite in="shadowBlurOuter1" in2="SourceAlpha" operator="out" result="shadowBlurOuter1"/><feColorMatrix in="shadowBlurOuter1" values="0 0 0 0 0 0 0 0 0 0 0 0 0 0 0 0 0 0 0.199473505 0"/></filter><path id="hsr-e" d="M10.7493987,6.5 L15.1036605,6.5 C14.5800579,7.33007812 14.2586363,8.24670573 14.2786564,9.24003255 C15.5743529,9.2533138 16.8733494,9.2533138 18.1690458,9.24003255 C18.1856559,8.25334635 17.9205546,7.31004557 17.3538318,6.5 L21.7379037,6.5 C21.4363922,7.13329427 20.9226896,7.71999349 20.9724099,8.46330078 C20.9524998,11.7866016 20.9790099,15.1133333 20.9691098,18.4366341 C21.399872,18.4366341 21.8340442,18.4366341 22.2681063,18.4399544 C22.5862279,17.8099805 22.8679393,17.167168 23.0931105,16.5000065 C24.395407,16.5332096 25.7044135,16.4633724 27,16.6366927 C25.7176136,17.7434635 25.0481502,19.3167383 24.2131361,20.7500065 C20.8993695,20.7566471 17.5856029,20.7400456 14.2685363,20.7599674 C14.1127756,21.97 14.8583593,22.8032878 15.7232936,23.5 L10.1260256,23.5 C10.6131081,22.8566341 11.593983,22.4433659 11.4913525,21.4999544 C11.5243526,18.2866667 11.4913525,15.0696159 11.5012525,11.8533398 L14.3414667,11.8533398 L14.3414667,13.8333529 L18.1092055,13.8333529 L18.1092055,11.5633659 L10.2422962,11.5633659 C9.58962628,12.7100543 8.93790969,13.855599 8.28714644,15 C8.93666302,16.1466884 9.58933295,17.2922331 10.2451562,18.4366341 L11.2131611,18.4366341 L11.2131611,20.7497852 L8.25414627,20.7497852 C7.17383087,18.8299805 6.05380527,16.9333073 5,15 L5,14.9966797 C6.05710529,13.0666927 7.1804309,11.1700195 8.25414627,9.24999349 C9.35767179,9.24999349 10.4610873,9.24999349 11.5646128,9.24003255 C11.5712129,8.25666667 11.3028115,7.3166862 10.7493987,6.5 Z M14.3415767,16.1666471 L14.3415767,18.4366341 L18.1093155,18.4366341 L18.1093155,16.1666471 L14.3415767,16.1666471 Z M21.2573113,9.24999349 L24.206096,9.24999349 C25.0147101,10.5500065 25.5714229,12.0501237 26.7378687,13.0904883 C26.7610788,13.1671875 26.803869,13.3237956 26.8272991,13.4003841 C25.5813229,13.5637435 24.3192866,13.4370182 23.0628603,13.4999935 C22.9037995,12.8067122 22.5889779,12.169987 22.2410462,11.5600456 C21.992555,11.5600456 21.5020625,11.5633659 21.2568713,11.5633659 L21.2573113,9.24999349 Z M18.2119461,21.0399805 C19.0834804,21.0433008 19.9583148,21.0399805 20.8299591,21.0366602 C20.8100491,22.1499609 21.5889629,22.8400326 22.3543468,23.5 L16.7174786,23.5 C17.4398522,22.8138021 18.2848764,22.1633529 18.2119461,21.0399805 Z"/><filter id="hsr-d" width="115.9%" height="120.6%" x="-8%" y="-7.4%" filterUnits="objectBoundingBox"><feOffset dy=".5" in="SourceAlpha" result="shadowOffsetOuter1"/><feGaussianBlur in="shadowOffsetOuter1" result="shadowBlurOuter1" stdDeviation=".5"/><feColorMatrix in="shadowBlurOuter1" values="0 0 0 0 0 0 0 0 0 0 0 0 0 0 0 0 0 0 0.204257246 0"/></filter></defs><g fill="none" fill-rule="evenodd"><g fill-rule="nonzero"><use fill="#000" filter="url(#hsr-a)" xlink:href="#hsr-b"/><use fill="#56428E" fill-rule="evenodd" xlink:href="#hsr-b"/><use fill="url(#hsr-c)" fill-rule="evenodd" style="mix-blend-mode:soft-light" xlink:href="#hsr-b"/><circle cx="16" cy="15" r="14.5" stroke="#000" stroke-opacity=".097"/></g><g fill-rule="nonzero"><use fill="#000" filter="url(#hsr-d)" xlink:href="#hsr-e"/><use fill="#FFF" fill-rule="evenodd" xlink:href="#hsr-e"/></g></g></svg>

<svg xmlns="http://www.w3.org/2000/svg" xmlns:xlink="http://www.w3.org/1999/xlink" width="32" height="32" viewBox="0 0 32 32"><defs><filter id="a" width="111.7%" height="111.7%" x="-5.8%" y="-4.2%" filterUnits="objectBoundingBox"><feOffset dy=".5" in="SourceAlpha" result="shadowOffsetOuter1"/><feGaussianBlur in="shadowOffsetOuter1" result="shadowBlurOuter1" stdDeviation=".5"/><feComposite in="shadowBlurOuter1" in2="SourceAlpha" operator="out" result="shadowBlurOuter1"/><feColorMatrix in="shadowBlurOuter1" values="0 0 0 0 0 0 0 0 0 0 0 0 0 0 0 0 0 0 0.199473505 0"/></filter><filter id="d" width="115.9%" height="120.6%" x="-8%" y="-7.4%" filterUnits="objectBoundingBox"><feOffset dy=".5" in="SourceAlpha" result="shadowOffsetOuter1"/><feGaussianBlur in="shadowOffsetOuter1" result="shadowBlurOuter1" stdDeviation=".5"/><feColorMatrix in="shadowBlurOuter1" values="0 0 0 0 0 0 0 0 0 0 0 0 0 0 0 0 0 0 0.204257246 0"/></filter><linearGradient id="c" x1="50%" x2="50%" y1="0%" y2="100%"><stop offset="0%" stop-color="#FFF" stop-opacity=".5"/><stop offset="100%" stop-opacity=".5"/></linearGradient><circle id="b" cx="16" cy="15" r="15"/><path id="e" d="M10.75 6.5h4.354c-.524.83-.845 1.747-.825 2.74 1.295.013 2.594.013 3.89 0 .017-.987-.248-1.93-.815-2.74h4.384c-.302.633-.815 1.22-.766 1.963-.02 3.324.007 6.65-.003 9.974.43 0 .865 0 1.3.003.317-.63.599-1.273.824-1.94 1.302.033 2.611-.037 3.907.137-1.282 1.106-1.952 2.68-2.787 4.113-3.314.007-6.627-.01-9.944.01-.156 1.21.59 2.043 1.454 2.74h-5.597c.487-.643 1.468-1.057 1.365-2 .033-3.213 0-6.43.01-9.647h2.84v1.98h3.768v-2.27h-7.867L8.287 15c.65 1.147 1.302 2.292 1.958 3.437h.968v2.313H8.254C7.174 18.83 6.054 16.933 5 15v-.003c1.057-1.93 2.18-3.827 3.254-5.747 1.104 0 2.207 0 3.31-.01a4.772 4.772 0 00-.815-2.74zm3.592 9.667v2.27h3.767v-2.27h-3.767zm6.915-6.917h2.95c.808 1.3 1.364 2.8 2.53 3.84.024.077.067.234.09.31-1.246.164-2.508.037-3.764.1-.16-.693-.474-1.33-.822-1.94l-.984.003V9.25zm-3.045 11.79c.871.003 1.746 0 2.618-.003-.02 1.113.759 1.803 1.524 2.463h-5.637c.723-.686 1.568-1.337 1.495-2.46z"/></defs><g fill="none"><use fill="#000" filter="url(#a)" xlink:href="#b"/><use fill="#56428E" fill-rule="evenodd" xlink:href="#b"/><use fill="url(#c)" fill-rule="evenodd" style="mix-blend-mode:soft-light" xlink:href="#b"/><circle cx="16" cy="15" r="14.5" stroke="#000" stroke-opacity=".097"/><use fill="#000" filter="url(#d)" xlink:href="#e"/><use fill="#FFF" fill-rule="evenodd" xlink:href="#e"/></g></svg>
